!!!SOCIAL_FUNCTION:	bird dance songs
!!!PDT:	1932
!!!OTL: No_103_Song_at_About_Midnight_(a).krn
!!!REG: Southwest
!!!LANG: Non-Tone
!!!LING_GROUP: Yuman-Cochimi
**kern	**kern
*staff2	*staff1
=1-	=1-
*clefF4	*clefF4
*k[f#c#]	*k[f#c#]
*M2/4	*M2/4
16GG/LL	8A\L
16GG/JJ	.
8r	[8A\J
16GG/LL	8A\]
16GG/JJ	.
8r	8r
=2	=2
16GG/LL	8.e\L
16GG/JJ	.
8r	.
.	16e\Jk
16GG/LL	8.e\L
16GG/JJ	.
8r	.
.	16B\Jk
=3	=3
16GG/LL	8.d\L
16GG/JJ	.
8r	.
.	16e\Jk
16GG/LL	16B\LL
16GG/JJ	16A\JJ
8r	8r
=4!|:	=4!|:
16GG/LL	8.e\L
16GG/JJ	.
8r	.
.	16d\Jk
16GG/LL	16d\LK
16GG/JJ	8.A\J
8r	.
=5	=5
16GG/LL	8.B\L
16GG/JJ	.
8r	.
.	16d\Jk
16GG/LL	8A\
16GG/JJ	.
8r	8r
=6	=6
16GG/LL	8.d\L
16GG/JJ	.
8r	.
.	16A\Jk
16GG/LL	16A\LK
16GG/JJ	8F#\J
8r	.
.	16r
=7	=7
16GG/LL	8.A\L
16GG/JJ	.
8r	.
.	16B\Jk
16GG/LL	8F#\
16GG/JJ	.
8r	8r
=8	=8
16GG/LL	8.B\L
16GG/JJ	.
8r	.
.	16A\Jk
16GG/LL	16A\LK
16GG/JJ	8.F#\J
8r	.
=9	=9
16GG/LL	8F#;\L
16GG/JJ	.
8r	[8A\J
16GG/LL	8A\L]
16GG/JJ	.
8r	16F#\L
.	16F#\JJ
=10	=10
16GG/LL	8.A\L
16GG/JJ	.
8r	.
.	16A\Jk
16GG/LL	8A\
16GG/JJ	.
8r	8r
=11	=11
4r	4r
16GG/LL	16B\LK
16GG/JJ	8B\
8r	.
.	16B\Jk
=12	=12
16GG/LL	8.e\L
16GG/JJ	.
8r	.
.	16d\Jk
16GG/LL	16d\LK
16GG/JJ	8A\J
8r	.
.	16r
=13	=13
16GG/LL	8.B-\L
16GG/JJ	.
8r	.
.	16d\Jk
16GG/LL	8A\
16GG/JJ	.
8r	8r
=14	=14
16GG/LL	8.d\L
16GG/JJ	.
8r	.
.	16A\Jk
16GG/LL	16A\LK
16GG/JJ	8F#\J
8r	.
.	16r
=15	=15
16GG/LL	8.A\L
16GG/JJ	.
8r	.
.	16B\Jk
16GG/LL	8F#\
16GG/JJ	.
8r	8r
=16	=16
16GG/LL	8.B\L
16GG/JJ	.
8r	.
.	16A\Jk
16GG/LL	16A\LK
16GG/JJ	8.F#\J
8r	.
=17	=17
16GG/LL	8F#;\L
16GG/JJ	.
8r	[8A\J
16GG/LL	8A\L]
16GG/JJ	.
8r	16F#\L
.	16F#\JJ
=18	=18
16GG/LL	8.A\L
16GG/JJ	.
8r	.
.	16A\Jk
16GG/LL	8A\
16GG/JJ	.
8r	8r
=19	=19
4r	4r
16GG/LL	8.B\L
16GG/JJ	.
8r	.
.	16B\Jk
=20:|!	=20:|!
2r	2r
=21	=21
16GG/LL	8A\L
16GG/JJ	.
8r	[8A\J
16GG/LL	8A\]
16GG/JJ	.
8r	8r
=22	=22
16GG/LL	8.e\L
16GG/JJ	.
8r	.
.	16e\Jk
16GG/LL	8.e\L
16GG/JJ	.
8r	.
.	16B\Jk
=23	=23
16GG/LL	8.d\L
16GG/JJ	.
8r	.
.	16e\Jk
16GG/LL	8B\
16GG/JJ	.
8r	8r
=24	=24
16GG/LL	8.e\L
16GG/JJ	.
8r	.
.	16d\Jk
16GG/LL	16d\LK
16GG/JJ	8A\J
8r	.
.	16r
=25	=25
16GG/LL	8.B-\L
16GG/JJ	.
8r	.
.	16d\Jk
4r	8A\
.	8r
=26	=26
16GG/LL	8.d\L
16GG/JJ	.
8r	.
.	16A\Jk
16GG/LL	16A\LK
16GG/JJ	8F#\J
8r	.
.	16r
=27	=27
16GG/LL	8.A\L
16GG/JJ	.
8r	.
.	16B\Jk
16GG/LL	8F#\
16GG/JJ	.
8r	8r
=28	=28
16GG/LL	8.B\L
16GG/JJ	.
8r	.
.	16A\Jk
16GG/LL	16A\LK
16GG/JJ	8.F#\J
8r	.
=29	=29
16GG/LL	8F#\L
16GG/JJ	.
8r	[8A\J
16GG/LL	8A\L]
16GG/JJ	.
8r	16F#\L
.	16F#\JJ
=30	=30
16GG/LL	8.A\L
16GG/JJ	.
8r	.
.	16A\Jk
16GG/LL	8A\
16GG/JJ	.
8r	8r
==	==
*-	*-
